X: 1
T:St. MARY’S
R: polka
M: 2/4
L: 1/8
K: Gmaj
D|GB AB/A/|Gg e/f/g/e/|dB AG/A/|B>A/ G/F/E/D/|
GB AB/A/|Gg e/f/g/e/|dB AG/A/| BG G2 :|]
A|:Bd g>d|Bd g>d|Bd ge|f2 fg|
a/b/a/g/ f/g/f/e/|dB AG/A/|Be d/B/A/B/|1 G2 G2:|]

